icons-dark/actions/16/tool-tweak.svg

<?xml version="1.0" encoding="UTF-8" standalone="no"?>
<!-- Created with Inkscape (http://www.inkscape.org/) -->

<svg
   xmlns:dc="http://purl.org/dc/elements/1.1/"
   xmlns:cc="http://creativecommons.org/ns#"
   xmlns:rdf="http://www.w3.org/1999/02/22-rdf-syntax-ns#"
   xmlns:svg="http://www.w3.org/2000/svg"
   xmlns="http://www.w3.org/2000/svg"
   xmlns:sodipodi="http://sodipodi.sourceforge.net/DTD/sodipodi-0.dtd"
   xmlns:inkscape="http://www.inkscape.org/namespaces/inkscape"
   width="16"
   height="16"
   id="svg3049"
   version="1.1"
   inkscape:version="0.91 r13725"
   sodipodi:docname="tool-tweak.svg"
   inkscape:export-filename="/home/uri/.kde/share/icons/NITRUX-KDE/16x16/actions/view-right-new.png"
   inkscape:export-xdpi="30"
   inkscape:export-ydpi="30">
  <defs
     id="defs3051">
    <style
       type="text/css"
       id="current-color-scheme">
      .ColorScheme-Text {
        color:#f2f2f2;
      }
      .ColorScheme-Background {
        color:#eff0f1;
      }
      .ColorScheme-Highlight {
        color:#3daee9;
      }
      .ColorScheme-ViewText {
        color:#31363b;
      }
      .ColorScheme-ViewBackground {
        color:#fcfcfc;
      }
      .ColorScheme-ViewHover {
        color:#93cee9;
      }
      .ColorScheme-ViewFocus{
        color:#3daee9;
      }
      .ColorScheme-ButtonText {
        color:#31363b;
      }
      .ColorScheme-ButtonBackground {
        color:#eff0f1;
      }
      .ColorScheme-ButtonHover {
        color:#93cee9;
      }
      .ColorScheme-ButtonFocus{
        color:#3daee9;
      }
      </style>
</defs>
  <sodipodi:namedview
     id="base"
     pagecolor="#ffffff"
     bordercolor="#666666"
     borderopacity="1.0"
     inkscape:pageopacity="0.0"
     inkscape:pageshadow="2"
     inkscape:zoom="32"
     inkscape:cx="6.4352999"
     inkscape:cy="6.6836834"
     inkscape:document-units="px"
     inkscape:current-layer="layer1"
     showgrid="true"
     fit-margin-top="0"
     fit-margin-left="0"
     fit-margin-right="0"
     fit-margin-bottom="0"
     inkscape:window-width="1920"
     inkscape:window-height="1017"
     inkscape:window-x="0"
     inkscape:window-y="0"
     inkscape:window-maximized="1"
     inkscape:showpageshadow="false"
     borderlayer="true"
     inkscape:snap-bbox="true"
     inkscape:snap-global="false"
     inkscape:object-nodes="true"
     showguides="true">
    <inkscape:grid
       type="xygrid"
       id="grid4085" />
    <sodipodi:guide
       position="2.0000044,14.00003"
       orientation="12,0"
       id="guide4075" />
    <sodipodi:guide
       position="2.0000044,2.0000296"
       orientation="0,12"
       id="guide4077" />
    <sodipodi:guide
       position="14.000004,2.0000296"
       orientation="-12,0"
       id="guide4079" />
    <sodipodi:guide
       position="14.000004,14.00003"
       orientation="0,-12"
       id="guide4081" />
  </sodipodi:namedview>
  <metadata
     id="metadata3054">
    <rdf:RDF>
      <cc:Work
         rdf:about="">
        <dc:format>image/svg+xml</dc:format>
        <dc:type
           rdf:resource="http://purl.org/dc/dcmitype/StillImage" />
        <dc:title></dc:title>
      </cc:Work>
    </rdf:RDF>
  </metadata>
  <g
     inkscape:label="Capa 1"
     inkscape:groupmode="layer"
     id="layer1"
     transform="translate(-421.71429,-531.79074)">
    <path
       style="color:#000000;font-style:normal;font-variant:normal;font-weight:normal;font-stretch:normal;font-size:medium;line-height:normal;font-family:sans-serif;text-indent:0;text-align:start;text-decoration:none;text-decoration-line:none;text-decoration-style:solid;text-decoration-color:#000000;letter-spacing:normal;word-spacing:normal;text-transform:none;direction:ltr;block-progression:tb;writing-mode:lr-tb;baseline-shift:baseline;text-anchor:start;white-space:normal;clip-rule:nonzero;display:inline;overflow:visible;visibility:visible;opacity:1;isolation:auto;mix-blend-mode:normal;color-interpolation:sRGB;color-interpolation-filters:linearRGB;solid-color:#000000;solid-opacity:1;fill:#f2f2f2;fill-opacity:1;fill-rule:evenodd;stroke:none;stroke-width:0.99955291px;stroke-linecap:butt;stroke-linejoin:miter;stroke-miterlimit:4;stroke-dasharray:none;stroke-dashoffset:0;stroke-opacity:1;color-rendering:auto;image-rendering:auto;shape-rendering:auto;text-rendering:auto;enable-background:accumulate"
       d="M 9.0078125,2.0019531 C 7.3410425,1.9616531 6.1895594,2.7637875 5.5371094,3.8984375 4.8846694,5.0330975 4.6432856,6.4629313 4.4785156,7.8632812 4.3137456,9.2636214 4.2315862,10.646281 4.0039062,11.619141 3.8900663,12.105561 3.7368325,12.480966 3.5703125,12.697266 3.4037825,12.913566 3.2675544,12.99459 2.9902344,13 L 2.6171875,13 2,13 2,14 2.6171875,14 3,14 l 0.00391,0 0.00586,0 c 0.55578,-0.0109 1.0424325,-0.291829 1.3515625,-0.693359 0.30914,-0.40154 0.4843544,-0.899765 0.6152344,-1.458985 0.26175,-1.11844 0.3341606,-2.5095304 0.4941406,-3.8691404 0.15997,-1.35961 0.4139038,-2.6762781 0.9335938,-3.5800781 C 6.9239969,3.4946475 7.619535,2.96704 8.984375,3 l 0.00586,0 0.00586,0 C 11.314414,2.99958 12.197417,4.06974 12.648438,5.1875 12.978127,6.00457 12.91055,6.45444 12.90625,6.84375 11.41986,6.38851 10.178014,6.3239656 9.3085938,6.7597656 8.2796337,7.2755456 7.7867794,8.3255081 7.7558594,9.3925781 7.7249594,10.459658 8.1105606,11.584463 8.8378906,12.470703 9.5652206,13.356943 10.66494,14.00053 12,14 c 1.030591,0.0099 1.453486,0.0033 2,0 l 0,-1 c -0.543609,0.0033 -0.96894,0.0099 -1.996094,0 l -0.002,0 L 12,13 C 10.98049,13.00041 10.181248,12.530376 9.6113281,11.835938 9.0414081,11.141497 8.7307962,10.217772 8.7539062,9.4199219 9.1458324,6.7112067 12.371454,7.5538379 14.000004,8 l -0.002,-0.453125 c 0,0 0.135765,-1.352365 -0.421875,-2.734375 -0.55672,-1.37971 -1.92371,-2.8062469 -4.5683595,-2.8105469 z"
       transform="translate(421.71429,531.79074)"
       id="path4140"
       inkscape:connector-curvature="0"
       sodipodi:nodetypes="cssscccccccccsssccccscscsccccccscccsc" />
  </g>
</svg>

<svg xmlns="http://www.w3.org/2000/svg" viewBox="0 0 16 16">
  <defs id="defs3051">
    <style type="text/css" id="current-color-scheme">
      .ColorScheme-Text {
        color:#f2f2f2;
      }
      </style>
  </defs>
 <path style="fill:currentColor;fill-opacity:1;stroke:none" 
       d="M 9.0078125 2.0019531 C 7.3410425 1.9616531 6.1895594 2.7637875 5.5371094 3.8984375 C 4.8846694 5.0330975 4.6432856 6.4629313 4.4785156 7.8632812 C 4.3137456 9.2636214 4.2315862 10.646281 4.0039062 11.619141 C 3.8900663 12.105561 3.7368325 12.480966 3.5703125 12.697266 C 3.4037825 12.913566 3.2675544 12.99459 2.9902344 13 L 2.6171875 13 L 2 13 L 2 14 L 2.6171875 14 L 3 14 L 3.0039062 14 L 3.0097656 14 C 3.5655456 13.9891 4.0521981 13.708171 4.3613281 13.306641 C 4.6704681 12.905101 4.8456825 12.406876 4.9765625 11.847656 C 5.2383125 10.729216 5.3107231 9.3381256 5.4707031 7.9785156 C 5.6306731 6.6189056 5.8846069 5.3022375 6.4042969 4.3984375 C 6.9239925 3.4946475 7.619535 2.96704 8.984375 3 L 8.9902344 3 L 8.9960938 3 C 11.314413 2.99958 12.197416 4.06974 12.648438 5.1875 C 12.978127 6.00457 12.91055 6.45444 12.90625 6.84375 C 11.41986 6.38851 10.178014 6.3239656 9.3085938 6.7597656 C 8.2796336 7.2755456 7.7867794 8.3255081 7.7558594 9.3925781 C 7.7249594 10.459658 8.1105606 11.584463 8.8378906 12.470703 C 9.5652206 13.356943 10.66494 14.00053 12 14 C 13.030591 14.0099 13.453486 14.0033 14 14 L 14 13 C 13.456391 13.0033 13.03106 13.0099 12.003906 13 L 12.001953 13 L 12 13 C 10.98049 13.00041 10.181248 12.530375 9.6113281 11.835938 C 9.0414081 11.141496 8.7307962 10.217772 8.7539062 9.4199219 C 9.1458325 6.7112067 12.37145 7.5538379 14 8 L 13.998047 7.546875 C 13.998047 7.546875 14.133812 6.19451 13.576172 4.8125 C 13.019452 3.43279 11.652462 2.0062531 9.0078125 2.0019531 z "
     class="ColorScheme-Text"
     />
</svg>
